X:1
T:Title
T:The Parlement
T:from the Dowland's MS
T:guitar
C:Composer
%%score ( 1 2 ) ( 3 4 )
L:1/8
M:4/4
K:D
V:1 treble-8 nm="Классическая гитара"
V:2 treble-8 
V:3 tab stafflines=6 strings=E2,A2,D3,G3,B3,E4 nostems nm="Классическая гитара (табулатура)"
V:4 tab stafflines=6 strings=E2,A2,D3,G3,B3,E4 nostems 
V:1
"D" [Adf]3 g fe d2 |"A" [EAce]3 d cB A2 | Bcde [Adf]2 [Ace]2 | [Adf]4 [Adf]4 :: f2 a2 fg a2 | %5
 fgag fe d2 |"C" e2 g2 ef g2 | efgf ed^cA | d3 A FG A2 | dAdA F>G A2 | Bcde [Adf]2 [Ace]2 | %11
 [Adf]4 [Adf]4 :| %12
V:2
 D8 | A,8 | [G,DG]4 D2 A,2 | D2 D6 :: [DAd]4 D4 | D8 | [=CG=c]4 C4 | =C6 z2 | [DA]4 x4 | D4 x4 | %10
 [G,DG]4 D2 A,2 | D2 D6 :| %12
V:3
 [!3!A,!2!D!1!F]3 !1!G !1!F !1!E !2!D2 | [!4!E,!3!A,!2!C!1!E]3 !2!D !2!C !2!B, !3!A,2 | %2
 !2!B, !2!C !2!D !1!E [!3!A,!2!D!1!F]2 [!3!A,!2!C!1!E]2 | [!3!A,!2!D!1!F]4 [!3!A,!2!D!1!F]4 :: %4
 !1!F2 !1!A2 !1!F !1!G !1!A2 | !1!F !1!G !1!A !1!G !1!F !1!E !2!D2 | !1!E2 !1!G2 !1!E !1!F !1!G2 | %7
 !1!E !1!F !1!G !1!F !1!E !2!D !2!^C !3!A, | !2!D3 !3!A, !4!F, !3!G, !3!A,2 | %9
 !2!D !3!A, !2!D !3!A, !4!F,3/2 !3!G,/ !3!A,2 | %10
 !2!B, !2!C !2!D !1!E [!3!A,!2!D!1!F]2 [!3!A,!2!C!1!E]2 | [!3!A,!2!D!1!F]4 [!3!A,!2!D!1!F]4 :| %12
V:4
 !4!D,8 | !5!A,,8 | [!6!G,,!4!D,!3!G,]4 !4!D,2 !5!A,,2 | !4!D,2 !4!D,6 :: %4
 [!4!D,!3!A,!2!D]4 !4!D,4 | !4!D,8 | [!5!=C,!3!G,!2!=C]4 !5!C,4 | !5!=C,6 x2 | [!4!D,!3!A,]4 x4 | %9
 !4!D,4 x4 | [!6!G,,!4!D,!3!G,]4 !4!D,2 !5!A,,2 | !4!D,2 !4!D,6 :| %12

